X:566
T: "Nonnenlied"
N: Z1246
O: Europa, Mitteleuropa, Deutschland, Niederrhein
R: Liebes - Lied
M: 4/4
L: 1/16
K: G
D4 | G2F2E2D2D4G4 | F4G4A8 | G8D8 |
G6B2A6c2 | B4B4A4A4 | G12z4 |
B6d2c4B4 | A4G4A8 |
G4A3BA4B3c | B4B4A4A4 | G8z4

@@@ Tune index: 10324
